X:344
T: "Der Hagenauer Sohn"
N: Z1024
O: Europa, Mitteleuropa, Deutschland, Niederrhein
R: Romanze, Ballade
M: 3/4
L: 1/8
K: G
GBc | d3edc | B3
ABc | d3edc | B2z
BdB | A3BcB | A3
ddd | d3BcA | G2z

